X: 21790
T: King's Fancy, The
R: jig
M: 6/8
K: Cmajor
cd|:edc cBc|Acf Gce|FAd EGc|dBG g^f=f|
edc cBc|Acf Gce|FAd EGc|dBG c2d:|
edc cBc|ecA cBA|B^GE dB^G|efe dcB|
edc cBc|ecA cBA|B^GE edB|cAA A2:|

